X: 20
T:Kuppari Eeva
M:2/4
L:1/16
S:French Creek
K:G
E3F E2F2|G2E2 E2G2|F2D2 D2F2|GFED E2B,2|E3F E2F2|G2E2E4|A4G2F2|E2D2E4:||
